src/actions/22/adjustlevels.svg

<svg xmlns="http://www.w3.org/2000/svg" viewBox="0 0 22 22">
  <defs id="defs3051">
    <style type="text/css" id="current-color-scheme">
      .ColorScheme-Text {
        color:#363636;
      }
      </style>
  </defs>
 <path 
     style="fill:currentColor;fill-opacity:1;stroke:none" 
     d="M 14.550781 3 C 13.336921 3 12.331762 3.85593 12.101562 5 L 3.0507812 5 L 3.0507812 6 L 12.101562 6 C 12.331762 7.14407 13.336921 8 14.550781 8 C 15.764641 8 16.7698 7.14407 17 6 L 19.050781 6 L 19.050781 5 L 17 5 C 16.7698 3.85593 15.764641 3 14.550781 3 z M 14.550781 4 C 15.381781 4 16.050781 4.669 16.050781 5.5 C 16.050781 6.331 15.381781 7 14.550781 7 C 13.719781 7 13.050781 6.331 13.050781 5.5 C 13.050781 4.669 13.719781 4 14.550781 4 z M 11.550781 9 C 10.336921 9 9.3317625 9.85593 9.1015625 11 L 3.0507812 11 L 3.0507812 12 L 9.1015625 12 C 9.3317625 13.14407 10.336921 14 11.550781 14 C 12.764641 14 13.7698 13.14407 14 12 L 19.050781 12 L 19.050781 11 L 14 11 C 13.7698 9.85593 12.764641 9 11.550781 9 z M 5.5507812 14 C 4.1657813 14 3.0507812 15.115 3.0507812 16.5 C 3.0507812 17.885 4.1657813 19 5.5507812 19 C 6.7646413 19 7.7698 18.14407 8 17 L 19.050781 17 L 19.050781 16 L 8 16 C 7.7698 14.85593 6.7646413 14 5.5507812 14 z M 5.5507812 15 C 6.3817812 15 7.0507812 15.669 7.0507812 16.5 C 7.0507812 17.331 6.3817812 18 5.5507812 18 C 4.7197813 18 4.0507812 17.331 4.0507812 16.5 C 4.0507812 15.669 4.7197813 15 5.5507812 15 z "
	 class="ColorScheme-Text"
     />
</svg>

<svg xmlns="http://www.w3.org/2000/svg" viewBox="0 0 22 22">
    <path d="M14.55 3a2.492 2.492 0 0 0-2.448 2H3.05v1h9.05c.23 1.144 1.236 2 2.45 2A2.492 2.492 0 0 0 17 6h2.05V5H17a2.492 2.492 0 0 0-2.45-2zm0 1c.832 0 1.5.669 1.5 1.5S15.383 7 14.55 7c-.83 0-1.5-.669-1.5-1.5s.67-1.5 1.5-1.5zm-3 5a2.492 2.492 0 0 0-2.448 2H3.05v1H9.1c.23 1.144 1.236 2 2.45 2A2.492 2.492 0 0 0 14 12h5.05v-1H14a2.492 2.492 0 0 0-2.45-2zm-6 5a2.495 2.495 0 0 0-2.5 2.5c0 1.385 1.116 2.5 2.5 2.5A2.492 2.492 0 0 0 8 17h11.05v-1H8a2.492 2.492 0 0 0-2.45-2zm0 1c.832 0 1.5.669 1.5 1.5S6.383 18 5.55 18c-.83 0-1.5-.669-1.5-1.5s.67-1.5 1.5-1.5z" style="fill:currentColor;fill-opacity:1;stroke:none;color:#050505;opacity:.7"/>
</svg>
